brandFactory_export/1.Light/Filtros_1Light.svg

<?xml version="1.0" encoding="UTF-8"?>
<svg width="24px" height="24px" viewBox="0 0 24 24" version="1.1" xmlns="http://www.w3.org/2000/svg" xmlns:xlink="http://www.w3.org/1999/xlink">
    <title>1.Light/Filtros_1Light</title>
    <g id="Symbols" stroke="none" stroke-width="1" fill="none" fill-rule="evenodd">
        <g id="1.Light/Filtros_1Light" fill="#5CB615" fill-rule="nonzero">
            <path d="M3.33781513,3.09747899 C2.98823529,3.63865546 2.87394958,4.28403361 3.01848739,4.91260504 C3.16302521,5.53781513 3.54957983,6.07226891 4.10084034,6.41512605 C4.65546218,6.75798319 5.31092437,6.86890756 5.94957983,6.72773109 C6.58823529,6.58655462 7.13277311,6.20672269 7.48235294,5.66554622 C7.83193277,5.12436975 7.94285714,4.4789916 7.80168067,3.85042017 C7.65714286,3.22521008 7.27058824,2.6907563 6.71932773,2.34789916 C6.32268908,2.10252101 5.87226891,1.97478992 5.41848739,1.97478992 C5.23697479,1.97478992 5.05210084,1.99495798 4.87058824,2.03529412 C4.23193277,2.17647059 3.68739496,2.55630252 3.33781513,3.09747899 Z M0.534453782,4.86554622 C0.262184874,4.86554622 0.043697479,4.65042017 0.043697479,4.38487395 C0.043697479,4.11932773 0.262184874,3.90420168 0.534453782,3.90420168 L2.02352941,3.90420168 C2.0907563,3.44369748 2.25210084,2.99327731 2.51092437,2.58655462 C3.00168067,1.82689076 3.76134454,1.29915966 4.65546218,1.10084034 C5.54957983,0.899159664 6.46722689,1.05714286 7.24369748,1.53781513 C8.02016807,2.01848739 8.55798319,2.76470588 8.75966387,3.64201681 C8.77983193,3.72941176 8.77983193,3.81680672 8.79327731,3.90420168 L23.0890756,3.90420168 C23.3613445,3.90420168 23.5798319,4.11932773 23.5798319,4.38487395 C23.5798319,4.65042017 23.3613445,4.86554622 23.0890756,4.86554622 L8.80336134,4.86554622 C8.73613445,5.32605042 8.57815126,5.77310924 8.31596639,6.17983193 C7.82857143,6.9394958 7.06554622,7.47058824 6.17142857,7.66890756 C5.91596639,7.72605042 5.6605042,7.75294118 5.40504202,7.75294118 C4.76302521,7.75294118 4.13445378,7.57478992 3.57983193,7.23193277 C2.80336134,6.7512605 2.26554622,6.00504202 2.06386555,5.12773109 C2.04369748,5.04369748 2.04369748,4.95294118 2.0302521,4.86554622 L0.534453782,4.86554622 Z M18.1344538,14.5193277 C19.4857143,14.5193277 20.5848739,13.4403361 20.5848739,12.112605 C20.5848739,10.7848739 19.4857143,9.70588235 18.1344538,9.70588235 C16.7831933,9.70588235 15.6806723,10.7848739 15.6806723,12.112605 C15.6806723,13.4403361 16.7831933,14.5193277 18.1344538,14.5193277 L18.1344538,14.5193277 Z M23.0588235,11.6319328 C23.3310924,11.6319328 23.5495798,11.8470588 23.5495798,12.112605 C23.5495798,12.3781513 23.3310924,12.5932773 23.0588235,12.5932773 L21.5159664,12.5932773 C21.2773109,14.2201681 19.8588235,15.4806723 18.1344538,15.4806723 C16.410084,15.4806723 14.9915966,14.2201681 14.7529412,12.5932773 L0.504201681,12.5932773 C0.231932773,12.5932773 0.0134453782,12.3781513 0.0134453782,12.112605 C0.0134453782,11.8470588 0.231932773,11.6319328 0.504201681,11.6319328 L14.7529412,11.6319328 C14.9915966,10.005042 16.410084,8.74453782 18.1344538,8.74453782 C19.8588235,8.74453782 21.2773109,10.005042 21.5159664,11.6319328 L23.0588235,11.6319328 L23.0588235,11.6319328 Z M8.70252101,22.2369748 C10.0537815,22.2369748 11.1529412,21.1579832 11.1529412,19.8302521 C11.1529412,18.502521 10.0537815,17.4235294 8.70252101,17.4235294 C7.3512605,17.4235294 6.2487395,18.502521 6.2487395,19.8302521 C6.25210084,21.1579832 7.3512605,22.2369748 8.70252101,22.2369748 Z M23.0554622,19.3495798 C23.3277311,19.3495798 23.5462185,19.5647059 23.5462185,19.8302521 C23.5462185,20.0957983 23.3277311,20.3109244 23.0554622,20.3109244 L12.0840336,20.3109244 C11.8453782,21.9378151 10.4268908,23.1983193 8.70252101,23.1983193 C6.97815126,23.1983193 5.55966387,21.9378151 5.3210084,20.3109244 L0.500840336,20.3109244 C0.228571429,20.3109244 0.0100840336,20.0957983 0.0100840336,19.8302521 C0.0100840336,19.5647059 0.228571429,19.3495798 0.500840336,19.3495798 L5.3210084,19.3495798 C5.55966387,17.7226891 6.97815126,16.4621849 8.70252101,16.4621849 C10.4268908,16.4621849 11.8453782,17.7226891 12.0840336,19.3495798 L23.0554622,19.3495798 Z" id="Filtros_1Light"></path>
        </g>
    </g>
</svg>

<svg width="24" height="24" viewBox="0 0 24 24" xmlns="http://www.w3.org/2000/svg"><path d="M3.338 3.097a2.35 2.35 0 00-.32 1.816c.145.625.532 1.16 1.083 1.502.554.343 1.21.454 1.849.313a2.442 2.442 0 001.532-1.062c.35-.542.46-1.187.32-1.816a2.402 2.402 0 00-1.083-1.502 2.473 2.473 0 00-1.848-.313 2.442 2.442 0 00-1.533 1.062zM.534 4.866a.485.485 0 01-.49-.481c0-.266.218-.48.49-.48h1.49c.067-.461.228-.912.487-1.318A3.412 3.412 0 014.655 1.1a3.447 3.447 0 012.589.437A3.342 3.342 0 018.76 3.642c.02.087.02.175.033.262H23.09c.272 0 .49.215.49.48 0 .266-.218.482-.49.482H8.803c-.067.46-.225.907-.487 1.314a3.408 3.408 0 01-2.145 1.489 3.462 3.462 0 01-2.592-.437 3.342 3.342 0 01-1.515-2.104c-.02-.084-.02-.175-.034-.262H.534zm17.6 9.653c1.352 0 2.45-1.079 2.45-2.406 0-1.328-1.098-2.407-2.45-2.407-1.35 0-2.453 1.079-2.453 2.407 0 1.327 1.102 2.406 2.453 2.406zm4.925-2.887c.272 0 .49.215.49.48 0 .266-.218.481-.49.481h-1.543c-.239 1.627-1.657 2.888-3.382 2.888-1.724 0-3.142-1.26-3.381-2.888H.504a.485.485 0 01-.49-.48c0-.266.218-.481.49-.481h14.249c.239-1.627 1.657-2.887 3.381-2.887 1.725 0 3.143 1.26 3.382 2.887h1.543zM8.703 22.237c1.35 0 2.45-1.079 2.45-2.407 0-1.327-1.1-2.406-2.45-2.406-1.352 0-2.454 1.079-2.454 2.406.003 1.328 1.102 2.407 2.454 2.407zm14.352-2.887c.273 0 .491.215.491.48 0 .266-.218.48-.49.48H12.083c-.239 1.628-1.657 2.888-3.381 2.888-1.725 0-3.143-1.26-3.382-2.887H.501a.485.485 0 01-.49-.48c0-.266.218-.481.49-.481h4.82c.239-1.627 1.657-2.888 3.382-2.888 1.724 0 3.142 1.26 3.381 2.888h10.971z" fill="#5CB615" fill-rule="nonzero"/></svg>
